X:1
T:Bel Raggio lusinghier
T:Bel Raggio lusinghier
T:Giacommo Rossini
C:Giacommo Rossini
%%score [ 1 { ( 2 3 ) 4 } ] { ( 5 8 9 ) | ( 6 7 ) }
L:1/8
Q:1/4=40
M:6/8
K:A
V:1 treble nm="Semiramide" snm="Sem."
V:2 treble nm="MusicXML Part" snm="1&amp;2"
V:3 treble 
V:4 treble nm="MusicXML Part" snm="3&amp;4"
V:5 treble nm="MusicXML Part" snm="Pno."
V:8 treble 
V:9 treble 
V:6 bass 
V:7 bass 
V:1
"^Andante Grazioso""^Andante Grazioso" z6 | z6 | z6 | z6 | z6 | z6 | z6 | z6 | z6 | z6 | z6 | z6 | %12
w: ||||||||||||
 z6 | z6 | z6 | z6 | z6 | z6 | z6 | z6 | z6 | z6 | z6 | z6 | z6 | z6 | z6 | z6 | z6 | z6 | z6 | %31
w: |||||||||||||||||||
 z6 | z6 | z6 | z6 | z6 | z6 | z6 | z6 | z6 | z6 | z6 | z6 | z6 | z6 | z6 | z6 | z6 | z6 | z6 | %50
w: |||||||||||||||||||
 z6 | z6 | z6 | z6 | z6 | z6 | z6 | z6 ||"^Semiramide" z2 z z2 E | %59
w: ||||||||Bel|
 A-A/>E/ c/>A/ e"^a piacere" (12:8:12(^d/4e/4f/4e/4=d/4c/4B/4A/4G/4A/4B/4A/4) | F2 z z2 F | %61
w: rag- * * gio _ lu- sin- * * * * * * * * * * *|ghier di|
 B-B/>F/ d/>B/ f (13:8:13(^e/4f/4g/4f/4=e/4d/4c/4d/4e/4d/4c/4d/4B/4) | G2 z z2 B | %63
w: spe- * * me e di pia- * * * * * * * * * * * *|cer al-|
 c3/2 (B/4A/4G/4A/4B/4A/4) ^d3/2 (c/4B/4^A/4B/4c/4B/4) | %64
w: fin per _ _ _ _ _ me bril- * * * * *|
 e3/2 (^d/4c/4B/4=A/4G/4F/4) !fermata!E z E | A2{/c} B/A/4B/4 c2{/e} =d/c/4d/4 | e2 z (f3 | %67
w: lò, bril- * * * * * lò: Ar-|sa- ce _ _ ri- tor- * *|nò, sì,|
 A2) B (c-(3c/d/c/) (3(B/E/G/) | A2 z z2 c | (c2 F) F-(3F/G/A/({BAG)} (3A/B/c/ |{/e} d3 z2 (d | %71
w: _ a me _ _ _ ver- * *|rà. Quest'|al- ma che _ _ _ sin- * *|or ge-|
 !>!G) z !>!B C z c | A z3/2 A/ c-c/B/{/B}A/G/ | F2 z z2 z | %74
w: mé, tre- mò, lan-|guì, ah! co- * me res- pi-|rò!...|
 d2 D/D/ D (12:16:12(E/8F/8G/8A/8B/8c/8d/8e/8f/8g/8a/8f/8) | e z (6:4:6c/4d/4e/4d/4c/4B/4 A z A | %76
w: O- gni mio duol spa- * * * * * * * * * * *|rì, spa- * * * * * rì. Dal|
 d e/4d/4c/4B/4 A/4=G/4F/4E/4 D(12:16:12(E/8F/8^G/8A/8B/8c/8d/8e/8f/8g/8a/8f/8) | %77
w: cor, dal _ _ _ mio _ _ _ pen- * * * * * * * * * * * *|
 e z (6:4:6c/4d/4e/4d/4c/4B/4 A z c |{/c} B2 B{/B} A2 A | G z z c z e | e z ^d d z e | %81
w: sier, pen- * * * * * sier si|di- le- guòil ter-|ror... Si, bel|rag- gio lu- sin-|
 (!>!e3 c2) c | c-c/>=B/ ^A/>B/ c-c/>B/ =d/>c/ | =A2 z z2 c | c2 A F2 (F/4A/4c/4f/4) | (^e3 c3) | %86
w: ghier _ di|spe- * * mee _ di _ _ pia- *|cer al-|fin per me bril- * * *|lò, si|
 =eBG BAF | E2 z z2 E | (B/c/4B/4G)E (B/c/4B/4G)E | (A/4B/4A/4G/4A/4B/4c/4d/4e/4f/4g/4a/4) A z E | %90
w: al- fin per me _ bril-|lò... La|cal- * * * maa que- * * * sto|cor _ _ _ _ _ _ _ _ _ _ _ _ Ar-|
 (B/c/4B/4G)E (B/c/4B/4G)E | (A/4B/4A/4G/4A/4B/4c/4d/4e/4f/4g/4a/4) A z E | %92
w: sa- * * * ce ren- * * * de-|rà; _ _ _ _ _ _ _ _ _ _ _ _ Ar-|
 A2{/c} (B/A/4B/4) c2{/e} (d/c/4d/4) | e2 z (f3 | A2) B c-c/4(e/4^d/4e/4 B/4e/4d/4e/4) | %95
w: sa- ce _ _ ri- tor- * *|nò, qui|_ a me _ _ _ _ ver- * * *|
 A2 z z2 z | z6 | z6 | B2 z z2 z/ G/ | A2 z z2 z/ B/ | e2 z !fermata!z2 z || %101
w: rà.|||Qui ver-|rà, ver-|rà.|
[M:4/4][Q:1/4=40]"^Allegretto" z8 | z8 | z8 | z8 | z4 z EcB | (!>!G2- G/A/B/A/) EEdc | %107
w: ||||Dol- ce pen-|sie- * * * * ro di quell 'i-|
 !>!^A2- (A/B/c/B/) EBcd | e (f/e/d/c/B/=A/) (G/E/G/B/) (A/E/) (A/c/) | B z !fermata!e3 Ee^d | %110
w: stan- * * * * te, a te sor-|ri- de _ _ _ _ _ l'a- * * * man- * te _|cor, si. Co- me più|
 c^B c2- c (B/c/) ^d (e/d/) | !>!cG !>!c3 (Ge^d) | c^B !>!c2- c (B/c/) ^d (e/d/) | c4 z .e.e.e | %114
w: ca- * ro, _ do- * poil tor- *|men- * to, e'il bel mo-|men- * to _ di _ pa- ceea- *|mor! e'il bel mo-|
 (e/=d/f/d/c/=B/d/B/)(A/G/B/G/F/E/F/D/) | (C/E/D/C/D/E/F/G/A/B/c/d/ e)e | %116
w: men- * * * * * * * * * * * * * * *|to _ _ _ _ _ _ _ _ _ _ _ _ di|
 (e/d/f/d/c/B/d/B/) (A/G/B/G/F/E/F/D/) | (C/E/D/C/D/E/F/G/A/B/c/d/ e)e | e !>!c2 !>!^A2 !>!=G2 F | %119
w: gio- * * * * * * * iae * a- * * * * *|mor, _ _ _ _ _ _ _ _ _ _ _ _ di|gio- ia, di gio- iaea-|
 (F/B/^A/B/c/B/A/B/F/d/c/d/e/d/c/d/) | (B/^A/c/B/d/c/e/d/f/e/^g/f/) (e/d/c/B/) | %121
w: mor, _ _ _ _ _ _ _ _ _ _ _ _ _ _ _|_ _ _ _ _ _ _ _ _ _ _ _ di _ _ _|
 f>e (3edc e>d (3dcB | =A2 z2 z4 | z8 | z8 | z8 | z8 | z8 | z8 | z8 | z8 | z8 | z8 | %133
w: gio- * ia, _ di gio- * iae * a-|mor!|||||||||||
 z8"^Semiramide" | !fermata!e4- eEcB | (G2- G/A/B/A/) EEdc | (!>!^A2- A/B/c/B/) EBcd | %137
w: |Ah!... _ dol- ce pen-|sie- * * * * ro di quel- l'i-|stan- * * * * te, a te sor-|
 e (f/e/d/c/B/=A/) (G/E/G/B/) (A/E/) (A/c/) | B z !fermata!e3 Ee^d | c^B c2- c (B/c/) ^d (e/d/) | %140
w: ri- de _ _ _ _ _ l'a- * * * man- * te _|cor, si. Co- me più|ca- * ro, _ do- * poil tor- *|
 !>!cG !>!c3 (Ge^d) | c^B !>!c2- c (B/c/) ^d (e/d/) | c4 z .e.e.e | %143
w: men- * to, e'il bel mo-|men- * to _ di _ pa- ceea- *|mor! e'il bel mo-|
 (e/=d/f/d/c/=B/d/B/A/G/B/G/F/E/F/D/) | (C/E/D/C/D/E/F/G/A/B/c/d/ e)e | %145
w: men- * * * * * * * * * * * * * * *|to _ _ _ _ _ _ _ _ _ _ _ _ di|
 (e/d/f/d/c/B/d/B/) (A/G/B/G/F/E/F/D/) | (C/E/D/C/D/E/F/G/A/B/c/d/ e)e | e !>!c2 !>!^A2 !>!=G2 F | %148
w: gio- * * * * * * * iaea- * * * * * * *|mor, _ _ _ _ _ _ _ _ _ _ _ _ di|gio- ia, di gioiae a-|
 (F/B/^A/B/c/B/A/B/F/d/c/d/e/d/c/d/) | (B/^A/c/B/d/c/e/d/f/e/^g/f/) (e/d/c/B/) | %150
w: mor, _ _ _ _ _ _ _ _ _ _ _ _ _ _ _|_ _ _ _ _ _ _ _ _ _ _ _ di _ _ _|
 f>e (3edc e>d (3dcB | (e/d/c/B/)(c/B/=A/G/)(A/G/F/E/)(F/E/D/C/) | %152
w: gio- * ia, _ di gio- * iae _ a-|mor, _ _ _ _ _ _ _ _ _ _ _ _ _ _ _|
 (DE/F/G/A/B/c/d/e/f/g/!>!a/>f/ d/B/ |{B)} A2 A2 z2 G>e | %154
w: _ _ _ _ _ _ _ _ _ _ _ _ _ di _|gio- ia, ea- *|
 (e/d/c/B/)(c/B/A/G/)(A/G/F/E/)(F/E/D/C/) | (DE/F/G/A/B/c/d/e/f/g/!>!a/>f/ d/B/ | %156
w: mor, _ _ _ _ _ _ _ _ _ _ _ _ _ _ _|_ _ _ _ _ _ _ _ _ _ _ _ _ di _|
{B)} A2 A2 z2 G>e | e4 d4 | c4 B4 | (ef/e/^d/e/f/e/) (=de/d/c/d/e/d/) | %160
w: gio- ia, ea- *|mor, di|gio- iaea-|mor, _ _ _ _ _ _ di _ _ _ _ _ _|
 (cd/c/B/c/d/c/) (Bc/B/^A/B/c/B/) | e2 d2 c2 B2 | e2 d2 c2 B2 | e2 f2 !turn!A2 c>B | A4 z4 | z8 | %166
w: gio- * * * * * * iaea- * * * * * *|mor, di gio- iaea-|mor, di gio- iaea-|mor, di gio- iaea- *|mor.||
 z8 | z8 | z8 | z8 | z8 | z8 | z8 | z8 | z8 |] %175
w: |||||||||
V:2
"^S\no\np\nr\na\nn\no\ns""^1st & 2nd" z6 | z6 | z6 | z6 | z6 | z6 | z6 | z6 | z6 | z6 | z6 | z6 | %12
w: ||||||||||||
 z6 | z6 | z6 | z6 | z6 | z6 | z6 | z6 | z6 | z6 | z6 | z6 | z6 | z6 | z6 | z6 | z6 | z6 | %30
w: ||||||||||||||||||
"^Sop. 1 & 2"!p! z2 z z2 e | e z ^d d z e | (!>!e3 c) z [Ac] | %33
w: Se-|re- nai va- ghi|ra- i e|
 c{/d}c/>=B/^A/>B/ (c{/d}c/>B/ =d/>c/) |!f! (c3 E) z c | [cf]2 [cf] [cf]2 [cf] | %36
w: schiu- * * dia le- ti- * * ziail *|cor. _ Più|dol- ci spi- ran|
 [c^e]3!>(! c3!>)! | =eBG BAF | E2 z z2 E | ([Bd]2 [Bd] [Bd]2 [Bd]) | ([Ac]2 [ce] [Ac]2 E) | %41
w: l'au- re|d'a- mor la vo- * lut-|tà. quest'-|om- bre che- te|spar- go- no la|
 ([Bd]2 [Bd] [Bd]2 [Bd]) |!f! [Ac]2 z z2 E | A2 B c2 d | e z z ([Af]3 | [CA]2) [EB] [Ac]2 [EB] | %46
w: cal- ma del l'a-|mor. Ar-|sa- ce ri- tor-|nò, qui,|qui a te ver-|
 [CA]2 z z2 z | z6 | z6 | [Bd][Bd][Bd] !>![Bd]2 [Bd] | [Ac]2 z z2 z | z6 | z6 | %53
w: rà|||qui tut- to spi- re-|rà|||
 [Bd][Bd][Bd] [Bd]2 [Bd] | [Ac] z z z2 [Bd]/[Ge]/ | [Ac] z z z2 [Bd]/[Ge]/ | A2 z z2 z | z6 || z6 | %59
w: a- mo- ree vo- lut-|tà, vo- lut-|tà, vo- lut-|tà.|||
 z6 | z6 | z6 | z6 | z6 | z6 | z6 | z6 | z6 | z6 | z6 | z6 | z6 | z6 | z6 | z6 | z6 | z6 | z6 | %78
w: |||||||||||||||||||
 z6 | z6 | z6 | z6 | z6 | z6 | z6 | z6 | z6 | z6 |!p! z2 z"^Sop. 1 & 2" z2 [Bd] | [Ac]2 z z2 z | %90
w: ||||||||||Ah|si!|
 z2 z z2 [Bd] | [Ac]2 z z2 z | z6 | z6 | z6 |!f! z2 z z2 E | [CA]2 [EB] [Ac]2 [Bd] | %97
w: Ah|si!||||Ar-|sa- ce qui ver-|
 [ce] z z [=cf] z z | z6 | z6 | z6 ||[M:4/4] z8 | z8 | z8 | z8 | z8 | z8 | z8 | z8 | z8 | z8 | z8 | %112
w: rà, qui.|||||||||||||||
 z8 | z8 | z8 | z8 | z8 | z8 | z8 | z8 | z8 | z8 |"^Sop. 1 & 2"!p! z4 (^d3 e) | (e3 c) (f3 e) | %124
w: ||||||||||Co- *|me _ più _|
 (d3 c) (c3 d) | (d3 ^A) (Bc) (d^d) | (e3 ^d) (d3 e) | (e3 c) (f3 e) | (d3 c) (c3 d) | %129
w: ca- * ro, _|do- * poil _ tor- *|men- * toe' il|bel _ mo- *|men- * to di|
 (d3 ^A) (Bc) (d^d) | (e3 ^d) (d3 e) | (e3 c) (f3 e) | (d3 c) (c3 d) | (d3 ^A) (Bc) (d^d) | %134
w: gio- * iae _ a- *|mor, _ è' il|bel _ mo- *|men- * to di|gio- * iae _ a- *|
 e2 !fermata!z2 z4 | z8 | z8 | z8 | z8 | z8 | z8 | z8 | z8 | z8 | z8 | z8 | z8 | z8 | z8 | z8 | %150
w: mor!||||||||||||||||
 z8 | A"^sotto voce" z z2 F z z2 | D z z2 [FB] z z2 | [Ac] z z2 [GB] z z2 | A z z2 F z z2 | %155
w: |Si di|gio- ia,|gio- iaea-|mor, di|
 D z z2 [FB] z z2 | [Ac] z z2 [GB] z z2 | [ce]4 [Bd]4 | [Ac]4 [GB]4 | [ce]4 [Bd]4 | [Ac]4 [GB]4 | %161
w: gio- ia,|gio- iaea-|mor, di|gio- iaea-|mor, di|gio- iaea-|
 [ce]2 [Bd]2 [Ac]2 [GB]2 | [ce]2 [Bd]2 [Ac]2 [GB]2 | [ce]2 [df]2 [Ac]2 [GB]2 | A4 z4 | z8 | z8 | %167
w: mor, di gio- iaea-|mor, di gio- iaea-|mor, di gio- iaea-|mor.|||
 z8 | z8 | z8 | z8 | z8 | z8 | z8 | z8 |] %175
w: ||||||||
V:3
 x6 | x6 | x6 | x6 | x6 | x6 | x6 | x6 | x6 | x6 | x6 | x6 | x6 | x6 | x6 | x6 | x6 | x6 | x6 | %19
 x6 | x6 | x6 | x6 | x6 | x6 | x6 | x6 | x6 | x6 | x6 | x6 | x6 | x6 | G2 G/>G/ G2 G | x6 | x6 | %36
 x6 | x6 | x6 | x6 | x6 | x6 | x6 | x6 | x6 | x6 | x6 | x6 | x6 | x6 | x6 | x6 | x6 | x6 | x6 | %55
 x6 | x6 | x6 || x6 | x6 | x6 | x6 | x6 | x6 | x6 | x6 | x6 | x6 | x6 | x6 | x6 | x6 | x6 | x6 | %74
 x6 | x6 | x6 | x6 | x6 | x6 | x6 | x6 | x6 | x6 | x6 | x6 | x6 | x6 | x6 | x6 | x6 | x6 | x6 | %93
 x6 | x6 | x6 | x6 | x6 | x6 | x6 | x6 ||[M:4/4] x8 | x8 | x8 | x8 | x8 | x8 | x8 | x8 | x8 | x8 | %111
 x8 | x8 | x8 | x8 | x8 | x8 | x8 | x8 | x8 | x8 | x8 | x8 | x8 | x8 | x8 | x8 | x8 | x8 | x8 | %130
 x8 | x8 | x8 | x8 | x8 | x8 | x8 | x8 | x8 | x8 | x8 | x8 | x8 | x8 | x8 | x8 | x8 | x8 | x8 | %149
 x8 | x8 | x8 | x8 | x8 | x8 | x8 | x8 | x8 | x8 | x8 | x8 | x8 | x8 | x8 | x8 | x8 | x8 | x8 | %168
 x8 | x8 | x8 | x8 | x8 | x8 | x8 |] %175
V:4
"^3rd & 4th" z6 | z6 | z6 | z6 | z6 | z6 | z6 | z6 | z6 | z6 | z6 | z6 | z6 | z6 | z6 | z6 | z6 | %17
w: |||||||||||||||||
 z6 | z6 | z6 | z6 | z6 | z6 | z6 | z6 | z6 | z6 | z6 | z6 | z6 |"^Sop. 3 & 4"!p! z2 z z2 c | %31
w: |||||||||||||Se-|
 c z ^B B z c | (!>!c3 A) z E | [DE]2 [DE]/>[DE]/ [DE]2 [DE] |!f! ([CE]3 C) z c | %35
w: re- nai va- ghi|ra- i e|schiu- dia le- ti- ziail|cor. _ Più|
 [FA]2 [FA] [FA]2 [FA] | c3!>(! c3!>)! | =eBG BAF | E2 z z2 E | (BGE BGE) | (A2 A A2 E) | %41
w: dol- ci spi- ran|l'au- re|d'a- mor la vo- * lut-|tà. quest'-|om- * bre che- * te|spar- go- no la|
 (BGE BGE) |!f! A2 z z2 E | C2 E A2 B | c z z ([A=c]3 | [CA]2) [EB] [Ac]2 [EB] | [CA]2 z z2 z | %47
w: cal- * ma del _ l'a-|mor. Ar-|sa- ce ri- tor-|nò, qui,|qui a te ver-|rà|
 z6 | z6 | [EG][EG][EG] !>![EG]2 [EG] | A2 z z2 z | z6 | z6 | [EG][EG][EG] [EG]2 [EG] | %54
w: ||qui tut- to spi- re-|rà|||a- mo- ree vo- lut-|
 A z z z2 [EB]/[EB]/ | [Ac] z z z2 [EB]/[EB]/ | A2 z z2 z | z6 || z6 | z6 | z6 | z6 | z6 | z6 | %64
w: tà, vo- lut-|tà, vo- lut-|tà.||||||||
 z6 | z6 | z6 | z6 | z6 | z6 | z6 | z6 | z6 | z6 | z6 | z6 | z6 | z6 | z6 | z6 | z6 | z6 | z6 | %83
w: |||||||||||||||||||
 z6 | z6 | z6 | z6 | z6 |!p! z2 z"^Sop. 3 & 4" z2 [EG] | A2 z z2 z | z2 z z2 [EG] | A2 z z2 z | %92
w: |||||Ah|si!|Ah|si!|
 z6 | z6 | z6 |!f! z2 z z2 E | [CA]2 [EB] [Ac]2 [Bd] | [ce] z z A z z | z6 | z6 | z6 ||[M:4/4] z8 | %102
w: |||Ar-|sa- ce qui ver-|rà, qui.|||||
 z8 | z8 | z8 | z8 | z8 | z8 | z8 | z8 | z8 | z8 | z8 | z8 | z8 | z8 | z8 | z8 | z8 | z8 | z8 | %121
w: |||||||||||||||||||
 z8 |"^Sop. 3 & 4"!p! z4 (^B3 c) | (c3 A) (d3 c) | (B3 ^A) (A3 B) | (B3 ^^F) (GA) (B^B) | %126
w: |Co- *|me _ più _|ca- * ro, _|do- * poil _ tor- *|
 (c3 ^B) (B3 c) | (c3 A) (d3 c) | (B3 ^A) (A3 B) | (B3 ^^F) (GA) (B^B) | (c3 ^B) (B3 c) | %131
w: men- * toe' il|bel _ mo- *|men- * to di|gio- * iae _ a- *|mor, _ è' il|
 (c3 A) (d3 c) | (B3 ^A) (A3 B) | (B3 ^^F) (GA) (B^B) | c2 !fermata!z2 z4 | z8 | z8 | z8 | z8 | %139
w: bel _ mo- *|men- * to di|gio- * iae _ a- *|mor!|||||
 z8 | z8 | z8 | z8 | z8 | z8 | z8 | z8 | z8 | z8 | z8 | z8 | A"^sotto voce" z z2 F z z2 | %152
w: ||||||||||||Si di|
 D z z2 D z z2 | E z z2 E z z2 | A z z2 F z z2 | D z z2 D z z2 | E z z2 E z z2 | A4 D4 | E4 E4 | %159
w: gio- ia,|gio- iaea-|mor, di|gio- ia,|gio- iaea-|mor, di|gio- iaea-|
 A4 D4 | E4 E4 | A2 D2 E2 E2 | A2 D2 E2 E2 | A2 D2 E2 E2 | A4 z4 | z8 | z8 | z8 | z8 | z8 | z8 | %171
w: mor, di|gio- iaea-|mor, di gio- iaea-|mor, di gio- iaea-|mor, di gio- iaea-|mor.|||||||
 z8 | z8 | z8 | z8 |] %175
w: ||||
V:5
!<(! !fermata!A3 A!<)! z z |!<(! !fermata!A3 A!<)! z z |!p! z3 z2 [ec'e'] | %3
 [ec'e'] z [^d^b^d'] [dbd'] z [ec'e'] | ([ec'e']3 [cac']) z [ec'e'] | g6 |!f! ([=A=a]3 [Ee]) z c | %7
 [Acf]2 [Acf]/4[Acf]/4[Acf]/4[Acf]/4 [Acf]2 [Acf]/4[Acf]/4[Acf]/4[Acf]/4 | [c^e]3 ([cc']3 | %9
!pp! ([=e=e'])[Bb][Gg] [Bb][Aa][Ff]) | e2 z z2 z | (B/c/4B/4G)E (B/c/4B/4G)E | x5 e | %13
 (b/c'/4b/4ge) (b/c'/4b/4ge) |!f! [Aa][cc'][Aa] [Ee] z [Ee] | x2{/c'} (b/a/4b/4) x3 | %16
!ff! [c'e']2 z/ [fa=c'f']/ [fac'f']2 z | %17
!pp! !>![Aa]2 [Bb] ([^c^c']-(3[cc']/[dd']/[cc']/ (3[Bb]/[Ee]/[Gg]/) | %18
 [Aa] z z!8va(!({c'd')} .[e'e'']/.[d'd'']/.[c'c'']/.[bb']/.[aa']/.[gg']/!8va)! | %19
 .[ff']/.[ee']/.[dd']/.[cc']/.[Bb]/.[Aa]/ ([Gg]/[Aa]/)([Gg]/[Aa]/)([Bb]/[cc']/) | %20
 ([ee']2 [dd'])({bc')} (!>!d'/c'/)(b/a/)(g/f/) | (e/d/)(c/B/)(A/G/) (F/E/)(^D/E/)(F/G/) | %22
 (A/4B/4c/4=d/4e) z!8va(!({c'd')} !>!.[e'e'']/.[d'd'']/.[c'c'']/.[bb']/.[aa']/.[gg']/!8va)! | %23
 .[ff']/.[ee']/.[dd']/.[cc']/.[Bb]/.[Aa]/ ([Gg]/[Aa]/)([Gg]/[Aa]/)([Bb]/[cc']/) | %24
 (!>![ee']2 [dd'])({bc')} (d'/c'/)(b/a/)(g/f/) | (e/d/)(c/B/)(A/G/) (F/E/)(^D/E/)(F/G/) | %26
"^cresc." A z/ (3(A/4B/4A/4) (E/c/) B z/ (3(B/4c/4B/4) (E/e/) | %27
 A z/ (3(a/4b/4a/4) (e/c'/) b z/ (3(b/4c'/4b/4) (e/e'/) |!ff! A/ c/A/e/A/a/ A/c'/A/e'/A/a'/ | %29
 A z3/2 [cea]/ [cea] z3/2 [CEA]/ |!p! [CEA] z z z2 [ec'e'] | [ec'e'] z [^d^b^d'] [dbd'] z [ec'e'] | %32
 ([ec'e']3 [cac']) z [cac'] | g6 |!f! ([=A=a]3 [Ee]) z c | %35
 [Acf]2 [Acf]/4[Acf]/4[Acf]/4[Acf]/4 [Acf]2 [Acf]/4[Acf]/4[Acf]/4[Acf]/4 | [c^e]3 ([cc']3 | %37
!pp! [=e=e'])[Bb][Gg] [Bb][Aa][Ff] | e2 z z2 z | (B/c/4B/4GE) (B/c/4B/4GE) | x5 e | %41
 ([Bb]/c'/4b/4ge) ([Bb]/c'/4b/4ge) | [Aa][cc'][Aa] [Ee] z [Ee] | x2{/c'} (b/a/4b/4) x3 | %44
!ff! [c'e'] z z/ [fa=c'f']/ [fac'f']2 z | %45
!pp! !>![Aa]2 [Bb] [^c^c']-(3([cc']/[dd']/[cc']/ (3[Bb]/[Ee]/[Gg]/) | %46
 [Aa] z z!8va(!({c'd')} !>!.[e'e'']/.[d'd'']/.[c'c'']/.[bb']/.[aa']/.[gg']/!8va)! | %47
 .[f'f'']/.[ee']/.[dd']/.[cc']/.[Bb]/.[Aa]/ ([Gg]/[Aa]/)([Gg]/[Aa]/)([Bb]/[cc']/) | %48
 ([ee']2 [dd'])({bc')} (!>!d'/c'/)(b/a/)(g/f/) | (e/d/)(c/B/)(A/G/) (F/E/)(^D/E/)(F/G/) | %50
 (A/4B/4c/4=d/4e) z!8va(!({c'd')} !>!.[e'e'']/.[d'd'']/.[c'c'']/.[bb']/.[aa']/.[gg']/!8va)! | %51
 .[ff']/.[ee']/.[dd']/.[cc']/.[Bb]/.[Aa]/ ([Gg]/[Aa]/)([Gg]/[Aa]/)([Bb]/[cc']/) | %52
 (!>![ee']2 [dd'])({bc')} (d'/c'/)(b/a/)(g/f/) | (e/d/)(c/B/)(A/G/) (F/E/)(^D/E/)(F/G/) | %54
"^cresc." A z/ (3(A/4B/4A/4) (E/c/) B z/ (3(B/4c/4B/4) (E/e/) | %55
 A z/ (3(a/4b/4a/4) (e/c'/) b z/ (3(b/4c'/4b/4) (e/e'/) |!ff! A/ c/A/e/A/a/ A/c'/A/e'/A/a'/ | %57
 A z3/2 [cea]/ [cea] z3/2 [CEA]/ || [CEA]2 z z2 z | z6 | z2 z/ [Bfb]/ [Bfb]2 z | z6 | %62
 z2 z/ [egbe']/ [egbe']2 z | [Acfa] z z [B^dfb] z z | [EGe] z z !fermata!z2 z | %65
!p! [CA]z[EB] [Ac]z[B=d] |!ff! [c'e']2 z/ [fa=c'f']/ ([ff']3 | %67
!p! [Aa]2) [Bb] [^c^c']-(3[cc']/[dd']/[cc']/ (3[Bb]/[Ee]/[Gg]/ | ([Aa][Ee]({ab)}[cc']) [Aa] z z | %69
!pp! FcA F z z | FdB F z z | [B,G] z z [B,^E] z z | [A,F] z z z2 z | z6 |!ff! d'!>(! z!>)! z z2 z | %75
!ff! !arpeggio![ceac'] z z z2 z |!>(! d' z!>)! z z2 z | !arpeggio![ceac'] z z z2 z | %78
!pp! B/4G/4B/4!<(!G/4B/4G/4B/4G/4B/4G/4B/4G/4 A/4F/4A/4F/4A/4F/4A/4F/4A/4F/4A/4F/4!<)! | %79
!f!!p! [^EG] z z z2 [=ec'=e'] | [ec'e'] z [^d^b^d'] [dbd'] z [ec'e'] | %81
 ([ec'e']3 [cac']) z [ec'e'] | g6 |!f! ([=A=a]3 [Ee]) z c | %84
 [Acf]2 [Acf]/4[Acf]/4[Acf]/4[Acf]/4 [Acf]2 [Acf]/4[Acf]/4[Acf]/4[Acf]/4 | [c^e]3 ([cc']3 | %86
!pp! [=e=e'])[Bb][Gg] [Bb][Aa][Ff] | e2 z z2 z | (B/c/4B/4GE) (B/c/4B/4GE) | x5 e | %90
 (b/c'/4b/4ge) (b/c'/4b/4ge) | [Aa][cc'][Aa] [Ee] z E |!<(! [CA]z[EB] [Ac]z[Bd]!<)! | %93
!ff! [c'e']2 z/ [fa=c'f']/ [ff']3 |!p! [Aa]2 [Bb] [cc']-[cc']/4(e'/4^d'/4e'/4b/4e'/4d'/4e'/4) | %95
!ff! [Aa][Ee]({ab)}[cc'] [Aa] z [Ee] | x2{/c'} (b/a/4b/4) x3 | %97
!ff! [c'e']2 z/ [fa=c'f']/ [fac'f']2 z | z2"^sotto voce" z [EG] z z | z2 z [A,^D] z z | %100
!ff! z2 z/ [ee']/ !fermata![ee']2 z ||[M:4/4]!mf! z4 z !turn!e.c'.b | %102
 !>!g2- (g/a/b/a/) e !>!e.d'.c' | !>!^a2- (a/b/c'/b/) e !turn!b.c'.d' | %104
!ff! e'c'/=a/ [^dfc'-]2 c'.b/.a/ .g/.f/.e/.d/ |!f! eg/b/ !arpeggio![egbe']2 z4 | %106
 z .[CE].[CE].[CE] .[CE] z z2 | z .[DEG].[DEG].[DEG] .[DEG] z z2 | .[EAe] z z2 .[DG] z .[CEA] z | %109
!ff! [B,EB] z [ee']2 !fermata!z z z2 |!p! .[EG].[EG].[EG].[EG] .[EG].[EG].[^DFG].[DFG] | %111
 z .G !>!c2 z4 |!<(! .[EG].[EG].[EG].[EG] .[EG].[EG].[^DFG].[DFG]!<)! | .[EG].[Gg] !>![cc']2 z4 | %114
"^sotto voce" z [B,=DG] z [B,DG] z [B,DG] z [B,DG] | z [CA] z [CA] z [CA] z [CA] | %116
"^sotto voce" z [B,DG] z [B,DG] z [B,DG] z [B,DG] | z [CA] z [CA] z [CA] z [CA] | %118
 z [CE^A] z [CEA] z [CEA] z [CEA] | [B,FB] z z2 [B,FB] z z2 | [B,FB] z z2 z4 | %121
 z2 [CAc]2 z2 [B,GB]2 |"^sotto voce" e/c/e/c/ e/c/^d/^B/ d/B/d/B/ d/B/e/c/ | %123
 e/c/e/c/ e/c/c/A/ f/=d/f/d/ f/d/e/c/ | d/=B/d/B/ d/B/c/^A/ c/A/c/A/ c/A/d/B/ | %125
 d/B/d/B/ d/B/^A/^^F/ B/G/c/=A/ d/B/^d/^B/ | %126
"^cresc." [ce]/E/[ce]/E/ [ce]/E/[^B^d]/^D/ [Bd]/D/[Bd]/D/ [Bd]/D/[ce]/E/ | %127
 [ce]/E/[ce]/E/ [ce]/E/[Ac]/C/ [=d^f]/F/[df]/F/ [df]/F/[ce]/E/ | %128
 [=Bd]/E/[Bd]/E/ [Bd]/E/[^Ac]/E/ [Ac]/E/[Ac]/E/ [Ac]/E/[Bd]/E/ | %129
 [Bd]/E/[Bd]/E/ [Bd]/E/[^^F^A]/E/ [GB]/E/[=Ac]/E/ [Bd]/E/[^B^d]/E/ | %130
!f! [ce] [c'e']/e/ [c'e']/e/[^b^d']/^d/ [bd']/d/[bd']/d/ [bd']/d/[c'e']/e/ | %131
 [c'e']/e/[c'e']/e/ [c'e']/e/[ac']/c/ [=d'^f']/f/[d'f']/f/ [d'f']/f/[c'e']/e/ | %132
!ff! [=bd']/d/[bd']/d/ [bd']/d/[^ac']/c/ [ac']/c/[ac']/c/ [ac']/c/[bd']/d/ | %133
 [bd']/d/[bd']/d/ [bd']/d/[^^f^a]/^A/ [gb]/B/[=ac']/c/ [bd']/d/[^b^d']/^d/ | %134
 [ec'e'] z !fermata!z2 z4 |!p! z .[CE].[CE].[CE] .[CE] z z2 | z .[DEG].[DEG].[DEG] .[DEG] z z2 | %137
 .[EAe] z z2 .[DG] z .[CEA] z |!ff! [B,EB] z [ee']2 !fermata!z z z2 | %139
!p! .[EG].[EG].[EG].[EG] .[EG].[EG].[^DFG].[DFG] | z .G !>!c2 z4 | %141
!<(! .[EG].[EG].[EG].[EG] .[EG].[EG].[^DFG].[DFG]!<)! | .[EG].[Gg] !>![cc']2 z4 | %143
"^sotto voce" z [B,=DG] z [B,DG] z [B,DG] z [B,DG] | z [CA] z [CA] z [CA] z [CA] | %145
 z [B,DG] z [B,DG] z [B,DG] z [B,DG] | z [CA] z [CA] z [CA] z [CA] | %147
 z [CE^A] z [CEA] z [CEA] z [CEA] | [B,FB] z z2 [B,FB] z z2 | [B,FB] z z2 z4 | %150
 z2 [CAc]2 z2 [B,GB]2 |!pp! [Ac][ca] [Ac][ca] [Ac][ca] [Ac][ca] | %152
 [Bd][df] [Bd][df] [Bd][db] [Bd][db] | [Ac][ca] [Ac][ca] [GB][Bg] [GB][Bg] | %154
 [Ac][ca] [Ac][ca] [Ac][ca] [Ac][ca] | [Bd][df] [Bd][df] [Bd][db] [Bd][db] | %156
 [Ac][ca] [Ac][ca] [GB][Bg] [GB][Bg] |!ff! (1:4:2!>![c'e']/ e/ (1:4:2!>![bd']/ d/ | %158
 (1:4:2!>![ac']/ c/ (1:4:2!>![gb]/ B/ | (1:4:2!>![c'e']/ e/ (1:4:2!>![bd']/ d/ | %160
 (1:4:2!>![ac']/ c/ (1:4:2!>![gb]/ B/ | %161
 [c'e']/e/[c'e']/e/ [bd']/d/[bd']/d/ [ac']/c/[ac']/c/ [gb]/B/[gb]/B/ | %162
 [c'e']/e/[c'e']/e/ [bd']/d/[bd']/d/ [ac']/c/[ac']/c/ [gb]/B/[gb]/B/ | %163
 [c'e']/e/[c'e']/e/ [bd']/d/[bd']/d/ [ac']/c/[ac']/c/ [gb]/B/[gb]/B/ | %164
 [c'e']/e/[c'e']/e/ [c'e']/e/[b^d']/^d/ [bd']/d/[bd']/d/ [bd']/d/[c'e']/e/ | %165
 [c'e']/e/[c'e']/e/ [c'e']/e/[ac']/c/ [=d'f']/f/[d'f']/f/ [d'f']/d/[c'e']/c/ | %166
 [bd']/d/[bd']/d/ [bd']/d/[^ac']/c/ [ac']/c/[ac']/c/ [ac']/c/[bd']/d/ | %167
 [bd']/d/[bd']/d/ [bd']/d/[^^f^a]/^A/ [gb]/B/[=ac']/c/ [bd']/d/[^b^d']/^d/ | %168
"^sotto voce" [c'e']/e/[c'e']/e/ [c'e']/e/[=b^d']/^d/ [bd']/d/[bd']/d/ [bd']/d/[c'e']/e/ | %169
 [c'e']/e/[c'e']/e/ [c'e']/e/[ac']/c/ [=d'^f']/f/[d'f']/f/ [d'f']/f/[c'e']/e/ | %170
 [bd']/d/[bd']/d/ [bd']/d/[^ac']/c/ [ac']/c/[ac']/c/ [ac']/c/[bd']/d/ | %171
 [bd']/d/[bd']/d/ [bd']/d/[^^f^a]/^A/ [gb]/B/[=ac']/c/ [bd']/d/[^b^d']/^d/ | %172
 [ec'e']2 z3/2 [=d^f=b=d']/ [dfbd']2 z3/2 [ceac']/ | [ceac']2 z3/2 [Bdgb]/ [Bdgb]2 z3/2 [Acea]/ | %174
 [Acea]4 z4 |] %175
V:6
 !fermata!A,3 A, z z | !fermata!A,3 A, z z |!p! C,/E,/A,/C/A,/E,/ C,/E,/A,/C/A,/E,/ | %3
 C,/E,/A,/C/A,/E,/ ^D,/F,/A,/=C/A,/E,/ | ^C,/E,/A,/C/A,/E,/ C,/E,/A,/C/A,/E,/ | %5
 =D,/E,/G,/B,/G,/E,/ D,/E,/G,/B,/G,/E,/ | C,/E,/A,/C/A,/E,/ C,/E,/A,/C/A,/E,/ | %7
 F,/A,/C/F/C/A,/ F,/A,/C/F/C/A,/ | C,/^E,/G,/C/G,/E,/ C,/E,/G,/C/G,/E,/ | %9
 G,/B,/=E/G/E/B,/ F,/A,/^D/F/D/A,/ | E,/G,/B,/E/B,/G,/ E,/G,/B,/E/B,/G,/ | %11
 E,/G,/B,/=D/B,/G,/ E,/G,/B,/D/B,/G,/ | E,/A,/C/E/C/A,/ E,/A,/C/E/C/A,/ | %13
 E,/G,/B,/D/B,/G,/ E,/G,/B,/D/B,/G,/ | E,/A,/C/E/C/A,/ E, z E, | x2{/C} (B,/A,/4B,/4) x3 | %16
 [CE]2 z/ [^D,,^D,]/ [D,,D,]2 z | C,/E,/A,/E,/G,/E,/ !arpeggio!A,/E,/A,/E,/G,/E,/ | %18
 C,/E,/A,/C/A,/E,/ C,/E,/A,/C/A,/E,/ | C,/E,/A,/C/A,/E,/ C,/E,/A,/C/A,/E,/ | %20
 D,/F,/B,/D/B,/F,/ D,/F,/B,/D/B,/F,/ | E,/G,/B,/D/B,/G,/ E,/G,/B,/D/B,/G,/ | %22
 C,/E,/A,/C/A,/E,/ C,/E,/A,/C/A,/E,/ | C,/E,/A,/C/A,/E,/ C,/E,/A,/C/A,/E,/ | %24
 D,/F,/B,/D/B,/F,/ D,/F,/B,/D/B,/F,/ | E,/G,/B,/D/B,/G,/ E,/G,/B,/D/B,/G,/ | %26
 C,/E,/A,/C/A,/E,/ D,/E,/G,/B,/G,/E,/ | C,/E,/A,/C/A,/E,/ D,/E,/G,/B,/G,/E,/ | %28
 [A,,C,E,A,]/[A,,C,E,A,]/[A,,C,E,A,]/[A,,C,E,A,]/[A,,C,E,A,]/[A,,C,E,A,]/ [A,,C,E,A,]/[A,,C,E,A,]/[A,,C,E,A,]/[A,,C,E,A,]/[A,,C,E,A,]/[A,,C,E,A,]/ | %29
 [A,,C,E,A,] z3/2 [A,CEA]/ [A,CEA] z3/2 [A,,C,]/ |!p! C,/E,/A,/C/A,/E,/ C,/E,/A,/C/A,/E,/ | %31
 C,/E,/A,/C/A,/E,/ ^D,/F,/A,/=C/A,/E,/ | ^C,/E,/A,/C/A,/E,/ C,/E,/A,/C/A,/E,/ | %33
 =D,/E,/G,/B,/G,/E,/ D,/E,/G,/B,/G,/E,/ | C,/E,/A,/C/A,/E,/ C,/E,/A,/C/A,/E,/ | %35
 F,/A,/C/F/C/A,/ F,/A,/C/F/C/A,/ | C,/^E,/G,/C/G,/E,/ C,/E,/G,/C/G,/E,/ | %37
 G,/B,/=E/G/E/B,/ F,/A,/^D/F/D/A,/ | E,/G,/B,/E/B,/G,/ E,/G,/B,/E/B,/G,/ | %39
 E,/G,/B,/=D/B,/G,/ E,/G,/B,/D/B,/G,/ | E,/A,/C/E/C/A,/ E,/A,/C/E/C/A,/ | %41
 E,/G,/B,/D/B,/G,/ E,/G,/B,/D/B,/G,/ | E,/A,/C/E/C/A,/ E, z E, | x2{/C} (B,/A,/4B,/4) x3 | %44
 [CE] z z/ [^D,,^D,]/ [D,,D,]2 z | C,/E,/A,/E,/G,/E,/ !arpeggio!A,/E,/A,/E,/G,/E,/ | %46
 C,/E,/A,/C/A,/E,/ C,/E,/A,/C/A,/E,/ | C,/E,/A,/C/A,/E,/ C,/E,/A,/C/A,/E,/ | %48
 D,/F,/B,/D/B,/F,/ D,/F,/B,/D/B,/F,/ | E,/G,/B,/D/B,/G,/ E,/G,/B,/D/B,/G,/ | %50
 C,/E,/A,/C/A,/E,/ C,/E,/A,/C/A,/E,/ | C,/E,/A,/C/A,/E,/ C,/E,/A,/C/A,/E,/ | %52
 D,/F,/B,/D/B,/F,/ D,/F,/B,/D/B,/F,/ | E,/G,/B,/D/B,/G,/ E,/G,/B,/D/B,/G,/ | %54
 C,/E,/A,/C/A,/E,/ D,/E,/G,/B,/G,/E,/ | C,/E,/A,/C/A,/E,/ D,/E,/G,/B,/G,/E,/ | %56
 [A,,C,E,A,]/[A,,C,E,A,]/[A,,C,E,A,]/[A,,C,E,A,]/[A,,C,E,A,]/[A,,C,E,A,]/ [A,,C,E,A,]/[A,,C,E,A,]/[A,,C,E,A,]/[A,,C,E,A,]/[A,,C,E,A,]/[A,,C,E,A,]/ | %57
 [A,,C,E,A,] z3/2 [A,CEA]/ [A,CEA] z3/2 [A,,E,A,]/ || [A,,E,A,]2 z z2 z | z6 | %60
 z2 z/ [D,,D,]/ [D,,D,]2 z | z6 | z2 z/ [E,,E,]/ [E,,E,]2 z | [F,,F,] z z [B,,B,] z z | %64
 [E,B,] z z !fermata!z2 z | [C,A,]z[E,B,] [A,C]z[B,D] | [CE]2 z/ [^D,,^D,]/ [D,,D,]2 z | %67
 C,/E,/A,/E,/[G,E]/E,/ !arpeggio!A,/E,/A,/E,/[G,D]/E,/ | C,/E,/A,/C/A,/E,/ C, z z | %69
 !arpeggio![F,,A,]3- [F,,A,] z z | [B,,F,]3- [B,,F,] z z | [C,^E,] z z [C,G,] z z | %72
 [F,,C,F,] z z z2 z | z6 | D,6 | !arpeggio![A,,C,E,A,] z z z2 z | D,6 | %77
 !arpeggio![A,,C,E,A,] z z z2 z | %78
 B,/4D/4B,/4D/4B,/4D/4B,/4D/4B,/4D/4B,/4D/4 ^B,/4^D/4B,/4D/4B,/4D/4B,/4D/4B,/4D/4B,/4D/4 | %79
 C z z z2 z | C,/E,/A,/C/A,/E,/ ^D,/F,/A,/=C/A,/E,/ | ^C,/E,/A,/C/A,/E,/ C,/E,/A,/C/A,/E,/ | %82
 =D,/E,/G,/B,/G,/E,/ D,/E,/G,/B,/G,/E,/ | C,/E,/A,/C/A,/E,/ C,/E,/A,/C/A,/E,/ | %84
 F,/A,/C/F/C/A,/ F,/A,/C/F/C/A,/ | C,/^E,/G,/C/G,/E,/ C,/E,/G,/C/G,/E,/ | %86
 G,/B,/=E/G/E/B,/ F,/A,/^D/F/D/A,/ | E,/G,/B,/E/B,/G,/ E,/G,/B,/E/B,/G,/ | %88
 E,/G,/B,/=D/B,/G,/ E,/G,/B,/D/B,/G,/ | E,/A,/C/E/C/A,/ E,/A,/C/E/C/A,/ | %90
 E,/G,/B,/D/B,/G,/ E,/G,/B,/D/B,/G,/ | E,/A,/C/E/C/A,/ E, z E, | [C,A,]z[E,B,] [A,C]z[B,D] | %93
 [CE]2 z/ [^D,,^D,]/ [D,,D,]2 z | C,/E,/A,/E,/[G,E]/E,/ !arpeggio!A,/E,/A,/E,/[G,D]/E,/ | %95
 C,/E,/A,/C/A,/E,/ C, z E, | x2{/C} (B,/A,/4B,/4) x3 | [CE]2 z/ [^D,,^D,]/ [D,,D,]2 z | %98
 z2 z [E,B,] z z | z2 z [B,,F,] z z | z2 z/ [E,,E,]/ !fermata![E,,E,]2 z ||[M:4/4] z8 | %102
 z .[A,CE].[A,CE].[A,CE] .[A,CE] z z2 | z .[E,G,D].[E,G,D].[E,G,D] .[E,G,D] z z2 | %104
 [A,C] z !>![B,,F,A,]2 z2 [B,,^D,A,] z | [E,G,] z !arpeggio![E,,G,,B,,E,]2 z4 | %106
!pp! z .[A,,A,].[A,,A,].[A,,A,] .[A,,A,] z z2 | z .[E,B,].[E,B,].[E,B,] .[E,B,] z z2 | %108
 .[C,A,] z z2 .[B,,E,B,] z .[A,,A,] z | [E,G,] z [E,,E,]2 !fermata!z z z2 | %110
 .[G,C].[G,C].[G,C].[G,C] .[G,C].[G,C].[G,^B,].[G,B,] | %111
 .[G,CE].[G,CE].[G,CE].[G,CE] .[G,CE].[G,CE].[G,CE].[G,CE] | %112
 .[G,C].[G,C].[G,C].[G,C] .[G,C].[G,C].[G,^B,].[G,B,] | .[C,C]2 z2 z4 | E, z E, z E, z E, z | %115
 A,, z E, z C, z A,, z | E, z E, z E, z E, z | A,, z E, z C, z A,, z | F, z F, z F, z F, z | %119
 D, z z2 D, z z2 | D, z z2 z4 | E, z z2 E, z z2 | A,,A,A,A, A,,A,A,A, | A,,A,A,A, A,,A,A,A, | %124
 E,EEE E,EEE | E,EEE E,EEE | A,,A,A,A, A,,A,A,A, | A,,A,A,A, A,,A,A,A, | E,,E,E,E, E,,E,E,E, | %129
 E,,E,E,E, E,,E,E,E, | A,,,A,,A,,A,, A,,,A,,A,,A,, | A,,,A,,A,,A,, A,,,A,,A,,A,, | %132
 E,,,E,,E,,E,, E,,,E,,E,,E,, | E,,,E,,E,,E,, E,,,E,,E,,E,, | [A,,,A,,] z !fermata!z2 z4 | %135
 z .[A,,A,].[A,,A,].[A,,A,] .[A,,A,] z z2 | z .[E,B,].[E,B,].[E,B,] .[E,B,] z z2 | %137
 .[C,A,] z z2 .[B,,E,B,] z .[A,,A,] z | G, z [E,,E,]2 !fermata!z z z2 | %139
 .[G,C].[G,C].[G,C].[G,C] .[G,C].[G,C].[G,^B,].[G,B,] | %140
 .[G,CE].[G,CE].[G,CE].[G,CE] .[G,CE].[G,CE].[G,CE].[G,CE] | %141
 .[G,C].[G,C].[G,C].[G,C] .[G,C].[G,C].[G,^B,].[G,B,] | .[C,C]2 z2 z4 | E, z E, z E, z E, z | %144
 A,, z E, z C, z A,, z | E, z E, z E, z E, z | A,, z E, z C, z A,, z | F, z F, z F, z F, z | %148
 D, z z2 D, z z2 | D, z z2 z4 | E, z z2 E, z z2 | %151
 [A,,A,] z"^stacc." [A,,A,] z [F,,F,] z [F,,F,] z | [D,,D,] z [D,,D,] z [D,,D,] z [D,,D,] z | %153
 [E,,E,] z [E,,E,] z [E,,E,] z [E,,E,] z | [A,,A,] z [A,,A,] z [F,,F,] z [F,,F,] z | %155
 [D,,D,] z [D,,D,] z [D,,D,] z [D,,D,] z | [E,,E,] z [E,,E,] z [E,,E,] z [E,,E,] z | %157
 !>![A,,,A,,] [A,,E,]/A,/ [A,,E,][A,,E,] [D,,D,] [D,F,]/B,/ [D,F,][D,F,] | %158
 [E,,E,] [E,A,]/C/ [A,,E,][A,,E,] [E,,E,] [E,G,]/B,/ [E,G,][E,G,] | %159
 [A,,,A,,] [A,,E,]/A,/ [A,,E,][A,,E,] [D,,D,] [D,F,]/B,/ [D,F,][D,F,] | %160
 [E,,E,] [E,A,]/C/ [A,,E,][A,,E,] [E,,E,] [E,G,]/B,/ [E,G,][E,G,] | %161
 [A,,A,]2 [D,,D,]2 [E,,E,]2 [E,,E,]2 | [A,,,A,,]2 [D,,D,]2 [E,,E,]2 [E,,E,]2 | %163
 [A,,,A,,]2 [D,,D,]2 [E,,E,]2 [E,,E,]2 | A,,,A,,A,,A,, A,,,A,,A,,A,, | %165
 A,,,A,,A,,A,, A,,,A,,A,,A,, | E,,,E,,E,,E,, E,,,E,,E,,E,, | E,,,E,,E,,E,, E,,,E,,E,,E,, | %168
 A,,,A,,A,,A,, A,,,A,,A,,A,, | A,,,A,,A,,A,, A,,,A,,A,,A,, | E,,E,,,E,,,E,,, E,,E,,,E,,,E,,, | %171
 E,,E,,,E,,,E,,, E,,E,,,E,,,E,,, | [A,,,A,,]2 z3/2 [D,,D,]/ [D,,D,]2 z3/2 [E,,E,]/ | %173
 [E,,E,]2 z3/2 [E,,E,]/ [E,,E,]2 z3/2 [A,,,A,,]/ | [A,,A,]4 z4 |] %175
V:7
 x6 | x6 | .A,, z z z2 z | .A,, z z .A,, z z | A,, z z C, z z | E,, z z E,, z z | A,, z z A,, z z | %7
 F,, z z F,, z z | C, z z C, z z | B,, z z B,, z z | E, z z z2 z | E, z z E, z z | A,, z z z2 z | %13
 E, z z E, z z | A,, z z z2 z | [C,A,]2 E, [A,C]2{/[CE]} ([B,D]/[A,C]/4[B,D]/4) | x6 | %17
 E,, z z E,, z z | A,, z z z2 z | C, z z z2 z | B,, z z z2 z | E, z z z2 z | A,, z z z2 z | %23
 C, z z z2 z | B,, z z z2 z | E, z z z2 z | A,, z z A,, z z | A,, z z A,, z z | x6 | x6 | %30
 .A,, z z z2 z | .A,, z z .A,, z z | A,, z z C, z z | E,, z z E,, z z | A,, z z z2 z | %35
 F,, z z F,, z z | C, z z C, z z | B,, z z B,, z z | E, z z z2 z | E, z z E, z z | A,, z z z2 z | %41
 E, z z E, z z | A,, z z z2 z | [C,A,]2 E, [A,C]2{/[CE]} ([B,D]/[A,C]/4[B,D]/4) | x6 | %45
 E,, z z E,, z z | A,, z z z2 z | C, z z z2 z | B,, z z z2 z | E, z z E, z z | A,, z z z2 z | %51
 C, z z z2 z | B,, z z z2 z | E, z z z2 z | A,, z z A,, z z | A,, z z A,, z z | x6 | x6 || x6 | %59
 x6 | x6 | x6 | x6 | x6 | x6 | x6 | x6 | E,, z z E,, z z | A,, z z z2 z | x6 | x6 | x6 | x6 | x6 | %74
 D,, z z z2 z | x6 | D,, z z z2 z | x6 | x6 | x6 | .A,, z z z2 z | A,, z z C, z z | %82
 E,, z z E,, z z | A,, z z z2 z | F,, z z F,, z z | C, z z z2 z | B,, z z B,, z z | E, z z z2 z | %88
 E, z z E, z z | A,, z z z2 z | E, z z E, z z | A,, z z z2 z | x6 | x6 | E,, z z E,, z z | %95
 A,, z z z2 z | [C,A,]2 E, [A,C]2{/[CE]} ([B,D]/[A,C]/4[B,D]/4) | x6 | x6 | x6 | x6 ||[M:4/4] x8 | %102
 x8 | x8 | x8 | x8 | x8 | x8 | x8 | x8 | x8 | x8 | x8 | x8 | x8 | x8 | x8 | x8 | x8 | x8 | x8 | %121
 x8 | x8 | x8 | x8 | x8 | x8 | x8 | x8 | x8 | x8 | x8 | x8 | x8 | x8 | x8 | x8 | x8 | x8 | x8 | %140
 x8 | x8 | x8 | x8 | x8 | x8 | x8 | x8 | x8 | x8 | x8 | x8 | x8 | x8 | x8 | x8 | x8 | x8 | x8 | %159
 x8 | x8 | x8 | x8 | x8 | x8 | x8 | x8 | x8 | x8 | x8 | x8 | x8 | x8 | x8 | x8 |] %175
V:8
 x6 | x6 | x6 | x6 | x6 | [cc']-[cc']/>[=B=b]/[^A^a]/>[Bb]/ ([cc']-[cc']/>[Bb]/[=d=d']/>[cc']/) | %6
 x6 | x6 | x6 | x6 | EBG E z E | x6 | Ace (b/4a/4)(a/4g/4) (g/4f/4)(f/4e/4) e/4d/4(d/4c/4) | x6 | %14
 x6 | [Aa]2 e [ac']2{/[c'e']} ([bd']/[ac']/4[bd']/4) | x6 | x6 | x3!8va(! x3!8va)! | x6 | x6 | x6 | %22
 x3!8va(! x3!8va)! | x6 | x6 | x6 | x6 | x6 | x6 | x6 | x6 | x6 | x6 | %33
 [cc']-[cc']/>[=B=b]/[^A^a]/>[Bb]/ [cc']-[cc']/>[Bb]/[=d=d']/>[cc']/ | x6 | x6 | x6 | x6 | %38
 EBG E z E | x6 | Ace (b/4a/4)(a/4g/4) (g/4f/4)(f/4e/4) e/4d/4(d/4c/4) | x6 | x6 | %43
 [Aa]2 e [ac']2{/[c'e']} ([bd']/[ac']/4[bd']/4) | x6 | x6 | x3!8va(! x3!8va)! | x6 | x6 | x6 | %50
 x3!8va(! x3!8va)! | x6 | x6 | x6 | x6 | x6 | x6 | x6 || x6 | x6 | x6 | x6 | x6 | x6 | x6 | x6 | %66
 x6 | x6 | x6 | C3- C x2 | D3- D x2 | x6 | x6 | x6 | [df]6 | x6 | [df]6 | x6 | x6 | x6 | x6 | x6 | %82
 [cc']-[cc']/>[=B=b]/[^A^a]/>[Bb]/ [cc']-[cc']/>[Bb]/[=d=d']/>[cc']/ | x6 | x6 | x6 | x6 | %87
 EBG E z E | x6 | Ace (b/4a/4)(a/4g/4) (g/4f/4)(f/4e/4) e/4d/4(d/4c/4) | x6 | x6 | x6 | x6 | x6 | %95
 x6 | [Aa]2 e [ac']2{/[c'e']} ([bd']/[ac']/4[bd']/4) | x6 | x6 | x6 | x6 ||[M:4/4] x8 | x8 | x8 | %104
 x8 | x8 | x8 | x8 | x8 | x8 | x8 | x8 | x8 | x8 | E8- | E8- | E8- | E8 | F8 | x8 | x8 | x8 | x8 | %123
 x8 | x8 | x8 | x8 | x8 | x8 | x8 | x8 | x8 | x8 | x8 | x8 | x8 | x8 | x8 | x8 | x8 | x8 | x8 | %142
 x8 | E8- | E8- | E8- | E8 | F8 | x8 | x8 | x8 | x8 | x8 | x8 | x8 | x8 | x8 | x8 | x8 | x8 | x8 | %161
 x8 | x8 | x8 | x8 | x8 | x8 | x8 | x8 | x8 | x8 | x8 | x8 | x8 | x8 |] %175
V:9
 x6 | x6 | x6 | x6 | x6 | x6 | x6 | x6 | x6 | x6 | x6 | x6 | x6 | x6 | x6 | x6 | x6 | x6 | %18
 x3!8va(! x3!8va)! | x6 | x6 | x6 | x3!8va(! x3!8va)! | x6 | x6 | x6 | x6 | x6 | a x5 | x6 | x6 | %31
 x6 | x6 | x6 | x6 | x6 | x6 | x6 | x6 | x6 | x6 | x6 | x6 | x6 | x6 | x6 | x3!8va(! x3!8va)! | %47
 x6 | x6 | x6 | x3!8va(! x3!8va)! | x6 | x6 | x6 | x6 | x6 | a x5 | x6 || x6 | x6 | x6 | x6 | x6 | %63
 x6 | x6 | x6 | x3 [a=c']2 z | x6 | x6 | x6 | x6 | x6 | x6 | x6 | x6 | x6 | x6 | x6 | x6 | x6 | %80
 x6 | x6 | x6 | x6 | x6 | x6 | x6 | x6 | x6 | x6 | x6 | x6 | x6 | x3 [a=c']2 z | x6 | x6 | x6 | %97
 x6 | x6 | x6 | x6 ||[M:4/4] x8 | x8 | x8 | x8 | x8 | x8 | x8 | x8 | x8 | x8 | x8 | x8 | x8 | x8 | %115
 x8 | x8 | x8 | x8 | x8 | x8 | x8 | x8 | x8 | x8 | x8 | x8 | x8 | x8 | x8 | x8 | x8 | x8 | x8 | %134
 x8 | x8 | x8 | x8 | x8 | x8 | x8 | x8 | x8 | x8 | x8 | x8 | x8 | x8 | x8 | x8 | x8 | x8 | x8 | %153
 x8 | x8 | x8 | x8 | x8 | x8 | x8 | x8 | x8 | x8 | x8 | x8 | x8 | x8 | x8 | x8 | x8 | x8 | x8 | %172
 x8 | x8 | x8 |] %175

